icons/h-1.svg

<svg width="24" height="24" fill="none" xmlns="http://www.w3.org/2000/svg"><g clip-path="url(#a)"><path d="M13 20h-2v-7H4v7H2V4h2v7h7V4h2v16Zm8-12v12h-2v-9.796l-2 .536V8.67L19.5 8H21Z" /></g><defs><clipPath id="a"><path fill="#fff" d="M0 0h24v24H0z"/></clipPath></defs></svg>

<svg xmlns="http://www.w3.org/2000/svg" width="24" height="24" fill="none"><g clip-path="url(#a)"><g><path fill="#121212" d="M13 20H11V13H4V20H2V4H4V11H11V4H13V20ZM21 8V20H19V10.204L17 10.74V8.67L19.5 8H21Z"/></g></g><defs><clipPath id="a"><rect width="24" height="24" fill="white"/></clipPath></defs></svg>
